X:1
T:Pach pi
C:Trad centre Bretagne
L:1/8
Q:470
M:4/4
K:C
 [G2C,,2] [G2C,2] [A2F,,2] [G2F,2] | [c2G,,2] [AG,]B [c2C,,2] [c2C,2] | [G2C,,2] [G2C,2] [A2F,,2] [G2F,2] | \
 [c2G,,2] [AG,]B [c2C,,2] [G2C,2] | C,,2 [G2C,2] [A2F,,2] [G2F,2] | [c2G,,2] [AG,]B [c2C,,2] [c2C,2] | \
 [G2C,,2] [G2C,2] [A2F,,2] [G2F,2] | [c2G,,2] [AG,]B [c2C,,2] C,2 |: [d2G,,2] [f2G,2] e2 [d2G,2] | \
 [c2F,,2] [A2F,2] A2 [G2F,2] | [d2G,,2] [f2G,2] e2 [d2G,2] | [c2F,,2] [AF,]B [c2C,,2] C,2 :| \
W:Created with TablEdit http://www.tabledit.com/
